X:1
T:Saved
T:Saved
T:Bruno Richard Spangenberg
T:Enoch Hughes Leizure, 1889
T:Public Domain Courtesy of the Cyber Hymnal™
T:Public Domain Courtesy of the Cyber Hymnal™
C:Bruno Richard Spangenberg
Z:Public Domain
Z:Courtesy of the Cyber Hymnal™
%%score ( 1 2 ) 3 4
L:1/8
Q:1/4=98
M:4/8
K:Ab
V:1 treble 
V:2 treble 
V:3 bass 
V:4 bass 
V:1
 [Ec]3 [=D=B] | [Ec]2 [CA]2 | [Fc]2 ([FA][_FB]) | [Ec]2 [CA] z | [FA]3 [E=A] | [=DB]2 [D_A]2 | %6
w: 1.~See yon|bark a-|mid the *|break- ers,|Strugg- ling|hard to|
w: 2.~Soon the|storm be-|gins to *|weak- en,|Light breaks|forth, the|
w: 3.~Oh! how|oft the|storms o’er- *|take us,|As through|life we|
 G3 [CA] | ([DB]3 !fermata![=D=B]) | [Ec]3 [=D=B] | [Ec]2 [CA]2 x4 | [Fd]2 ([FA][_FB]) | %11
w: reach the|land; *|See those|brave and|no- ble *|
w: tem- pest’s|past; *|On- ward|speeds the|no- ble *|
w: wend our|way; *|Clouds of|dark- ness|hang a- *|
 [Ec]2 [CA] z | [_Gc]3 [Gc] | [=GB]2 [Ge]2 | [GB]3 [FA] | [EG]2 z2 | E3 E | [=DF]2 [_DG]2 | %18
w: sail- ors,|As they|la- bor|hand to|hand:|Light- nings|flash- ing,|
w: ves- sel,|On- ward,|on- ward,|saved at|last:|Then those|hearts are|
w: bove us,|Shut- ting|out the|sun’s bright|ray:|Then we|lift our|
 [CA]3 A | [FA]2 [_Gc]2 | [Fd]3 [=Gd] | [Ac]3 [Ac] | [F=d]3 [Ad] | [=Ge]2 z2 | [Ge]2 [G_d]2 | %25
w: thun- ders|roar- ing,|Dan- gers|threat- en|all a-|round;|Yet their|
w: filled with|glad- ness,|Fear and|sor- row|reign no|more;|Saved from|
w: eyes to|Heav- en,|Gaz- ing|t’ward th’e-|ter- nal|day;|And the|
 [Ac]3 [_Gc] | [Fd]2 ([FA][_FB]) | [Ec]2 [CA] z | (A2 G)[_B,F] | [CE]3 [CA] | [Ec]2 [DB]2 | %31
w: cour- age|does not *|fail them,|Hop- * ing|safe- ty|may be|
w: ship- wreck,|free from *|dan- ger,|Saved! * yes,|saved! the|storm is|
w: light grows|bright- er, *|bright- er,|En- * t’ring|Heav- en—|saved for|
 [CA]2 z2 ||"^Refrain" [Ec]3 [DB] | [CA]2 [CE]2 | [EA]3 [EG] | [EG] !fermata![DF]3 | [=DB]3 [FA] | %37
w: found.||||||
w: o’er.|Saved! oh,|bless- èd|thought to|cher- ish;|Saved! we|
w: aye!||||||
 [EG]3 [EG] | [EA]2 [EB]2 | [Ec]3 z | [=Ec]3 [Gc] | [Fc]2 [_Gc]2 | [Ff]3 [Fc] | %43
w: ||||||
w: see the|gold- en|shore;|Cling- ing|to the|cross of|
w: ||||||
 [Fe] !fermata![Fd]3 | [Fc]3 [FB] | [EA]3 [CE] | [Ec]2 [DB]2 | [CA]3 z |] %48
w: |||||
w: Je- sus,|There is|safe- ty|ev- er-|more.|
w: |||||
V:2
 x4 | x4 | x4 | x4 | x4 | x4 | (E2 _D) x | x4 | x4 | x8 | x4 | x4 | x4 | x4 | x4 | x4 | E3 E | x4 | %18
 x3 A | x4 | x4 | x4 | x4 | x4 | x4 | x4 | x4 | x4 | =B,3 x | x4 | x4 | x4 || x4 | x4 | x4 | x4 | %36
 x4 | x4 | x4 | x4 | x4 | x4 | x4 | x4 | x4 | x4 | x4 | x4 |] %48
V:3
 z G,,[G,,C,E,][=F,,C,=D,] | z G,,[C,E,]G,, | z G,,[C,E,]G,, | z E,,[A,,C,][G,,=C,] | %4
 z E,,[A,,C,][G,,=C,] | z D,,[A,,_C,]D,, | z D,, [F,,B,,][E,,C,] | z G,,[F,,D,]!fermata![=F,,=D,] | %8
 z G,,[G,,C,E,][=G,,C,=D,] | z G,,[C,E,]G,, x4 | z C,[A,,F,][_A,,D,] | z G,,[C,E,]G,, | %12
 z G,,[_B,,E,]G,, | z D,[B,,G,][G,,D,] | [D,,G,,B,,]2 [D,,F,,C,]2 | [D,,G,,B,,]2 z2 | %16
 z G,,=F,,G,, | [=F,,A,,]D,,[_F,,B,,]D,, | z C,B,,C, | [B,,D,]G,,[_B,,E,]G,, | %20
 z C,[A,,F,][G,,=B,,D,F,] | z C,[G,,E,]C, | z D,[A,,C,=F,]D, | [G,,B,,G,]2 z2 | z G,,[D,F,]G,, | %25
 z G,,[_B,,E,]G,, | z C,[A,,F,][_A,,D,] | z G,,[C,E,]G,, | [=D,,A,,C,]4 | [E,,G,,C,]3 [E,,C,] | %30
 [F,,G,,B,,]4 | [E,,G,,C,]2 z2 || [A,,E,]3 [A,,E,] | [A,,E,]2 [A,,A,]2 | [C,A,]3 [C,A,] | %35
 [D,A,] !fermata![D,A,]3 | [B,,A,]3 [=D,B,] | [E,B,]3 [_D,B,] | [C,A,]2 [B,,G,]2 | [A,,A,]3 z | %40
 [C,G,]3 [C,B,] | [F,A,]2 [E,A,]2 | [D,A,]3 [F,=A,] | [B,,B,] !fermata![B,,B,]3 | [C,=A,]3 [D,B,] | %45
 [E,C]3 [E,_A,] | [E,A,]2 [E,G,]2 | [A,,A,]3 z |] %48
V:4
 [A,,A,]4 | [A,,A,]4 | [A,,A,]4 | [A,,A,]4 | [F,,F,]4 | [B,,,B,,]4 | [E,,E,]4 | [E,,E,]4 | %8
 [A,,A,]4 | [A,,A,]4 [A,,A,]4 | [A,,A,]4 | [=A,,=A,]4 | [B,,B,]4 | [B,,,B,,]4 | [E,,E,]2 z2 | %15
 [E,,E,]4 | [E,,E,]4 | [A,,A,]4 | [A,,A,]4 | [D,,D,]3 [E,,E,] | [A,,A,]4 | [B,,B,]4 | [E,B,]2 z2 | %23
 [E,,E,]4 | [A,,A,]4 | [D,,D,]4 | [A,,A,]4 | [=D,,=D,]4 | [E,,E,]4 | [E,,E,]4 | [A,,,A,,]2 z2 | %31
 x4 || x4 | x4 | x4 | x4 | x4 | x4 | x4 | x4 | x4 | x4 | x4 | x4 | x4 | x4 | x4 | x4 |] %48

